docs/images/customers/customers-audi.svg

<svg width="117" height="29" viewBox="0 0 117 29" fill="none" xmlns="http://www.w3.org/2000/svg">
<path fill-rule="evenodd" clip-rule="evenodd" d="M105.422 17.6368C105.422 15.3331 104.452 12.6667 101.434 8.94974L94.1571 0H84.0257L89.7936 6.27897C90.7654 7.32605 92.0032 8.26702 92.0032 8.26702C90.6006 7.48259 88.8246 7.16864 87.422 7.16864C84.0813 7.16864 80.6859 7.8496 77.6676 9.47152C74.4344 11.1978 72.2759 14.0764 72.2759 17.8977C72.2759 20.8276 73.6257 23.0783 75.3497 24.8046C79.2296 28.5746 86.2908 28.9399 88.8783 28.9399C92.7054 28.9399 98.6891 28.1015 102.083 25.1194C104.079 23.3401 105.425 20.8807 105.425 17.6377L105.422 17.6368ZM116.578 7.74524H107.793V28.2598H116.578V7.74524ZM44.3572 28.2598L24.9532 0H14.0668L17.0751 3.45343L0 28.2598H9.80898L12.7353 23.6027H31.2366L34.224 28.258H44.3572V28.2598ZM70.0655 19.6771V7.74524H61.5516V16.9037C61.5516 19.5214 61.4423 20.2519 61.2811 20.932C60.6891 22.8157 58.6399 23.6523 56.536 23.6523C53.6261 23.6523 52.2781 22.553 51.7408 20.8258C51.5768 20.251 51.5249 19.6249 51.4712 18.9952C51.4166 18.316 51.4712 17.5829 51.4712 16.7976V7.74524H42.848V19.7283C42.848 22.3991 43.7634 24.3863 45.2725 25.7482C47.8591 28.2067 52.2253 28.9407 56.2682 28.9407C61.1736 28.9407 64.9478 28.2598 67.6419 25.6951C69.0445 24.3863 70.0682 22.66 70.0682 19.6771H70.0655ZM97.0151 17.8977C97.0151 20.0423 95.5597 21.6651 93.7272 22.5548C92.219 23.3401 90.4394 23.5488 88.8756 23.5488C87.3127 23.5488 85.4802 23.2366 83.9711 22.5026C82.1386 21.6138 80.7379 19.8866 80.7379 18.0012C80.7379 15.7523 82.5157 13.9729 84.6177 13.0824C85.911 12.5058 87.4748 12.2971 88.7135 12.2971C89.8993 12.2971 91.6252 12.4536 92.9713 12.978C95.3976 13.9729 97.0151 15.8557 97.0151 17.8977ZM27.8167 18.0879H16.0906L21.934 8.726L27.8176 18.0879H27.8167Z" fill="#D6DAE5"/>
</svg>

<svg width="117" height="29" fill="none" xmlns="http://www.w3.org/2000/svg"><path fill-rule="evenodd" clip-rule="evenodd" d="M105.422 17.637c0-2.304-.97-4.97-3.988-8.687L94.157 0H84.026l5.768 6.279c.971 1.047 2.21 1.988 2.21 1.988-1.403-.784-3.18-1.098-4.582-1.098-3.34 0-6.736.68-9.754 2.303-3.234 1.726-5.392 4.604-5.392 8.426 0 2.93 1.35 5.18 3.074 6.907 3.88 3.77 10.94 4.135 13.528 4.135 3.827 0 9.811-.838 13.205-3.82 1.996-1.78 3.342-4.24 3.342-7.482l-.003-.001Zm11.156-9.892h-8.785V28.26h8.785V7.745ZM44.358 28.26 24.952 0H14.067l3.008 3.453L0 28.26h9.809l2.926-4.657h18.502l2.987 4.655h10.133v.002Zm25.708-8.583V7.745h-8.514v9.159c0 2.617-.11 3.348-.27 4.028-.593 1.884-2.642 2.72-4.746 2.72-2.91 0-4.258-1.099-4.795-2.826-.164-.575-.216-1.201-.27-1.83-.054-.68 0-1.413 0-2.198V7.745h-8.623v11.983c0 2.671.915 4.658 2.425 6.02 2.586 2.459 6.952 3.193 10.995 3.193 4.906 0 8.68-.681 11.374-3.246 1.403-1.309 2.426-3.035 2.426-6.018h-.002Zm26.95-1.78c0 2.145-1.456 3.768-3.289 4.658-1.508.785-3.288.994-4.851.994-1.563 0-3.396-.312-4.905-1.046-1.832-.89-3.233-2.616-3.233-4.502 0-2.249 1.778-4.028 3.88-4.919 1.293-.576 2.857-.785 4.096-.785 1.185 0 2.911.157 4.257.681 2.427.995 4.044 2.878 4.044 4.92Zm-69.2.19H16.092l5.843-9.361 5.884 9.362h-.001Z" fill="#D6DAE5"/></svg>
